svg/color/bsccashplus.svg

<svg width="60" height="60" viewBox="0 0 60 60" fill="none" xmlns="http://www.w3.org/2000/svg">
<path d="M30 2.40039C45.2431 2.40039 57.5996 14.7569 57.5996 30C57.5996 45.2431 45.2431 57.5996 30 57.5996C14.7569 57.5996 2.40039 45.2431 2.40039 30C2.40039 14.7569 14.7569 2.40039 30 2.40039Z" fill="white" stroke="url(#paint0_linear_1_1061)" stroke-width="4.8"/>
<path d="M44.4576 42.2881H33.1666V36.1299H44.4576V42.2881ZM44.4576 36.1289H33.1666V29.9707H44.4576V36.1289Z" fill="#000001"/>
<path d="M33.8915 41.2012C33.8915 39.4339 32.4588 38.0012 30.6915 38.0012L32.2915 38.0012L33.8915 38.0012L33.8915 41.2012Z" fill="black"/>
<path d="M24.2916 15.6328H40.2018V25.3838H26.4283C25.1839 25.8222 24.2916 27.0079 24.2916 28.4023V31.6025C24.2916 32.9664 25.1455 34.1302 26.3473 34.5908H40.2018V44.3418H24.2916V44.4023C24.2916 39.1004 19.993 34.8018 14.691 34.8018V25.2021C19.993 25.2021 24.2916 20.9035 24.2916 15.6016V15.6328Z" fill="#3446FF"/>
<defs>
<linearGradient id="paint0_linear_1_1061" x1="-5.09009e-07" y1="8.89939" x2="52.9787" y2="58.587" gradientUnits="userSpaceOnUse">
<stop stop-color="#003CFF"/>
<stop offset="0.5" stop-color="#8F8BFF"/>
<stop offset="1" stop-color="#C9FFF9"/>
</linearGradient>
</defs>
</svg>

<svg xmlns="http://www.w3.org/2000/svg" width="60" height="60" fill="none" viewBox="0 0 60 60"><path fill="#fff" stroke="url(#bsccashplus_svg-a)" stroke-width="4.8" d="M30 2.4c15.243 0 27.6 12.357 27.6 27.6S45.243 57.6 30 57.6 2.4 45.243 2.4 30 14.757 2.4 30 2.4Z"/><path fill="#000001" d="M44.458 42.288H33.167V36.13h11.29zm0-6.16H33.167v-6.157h11.29z"/><path fill="#000" d="M33.892 41.201a3.2 3.2 0 0 0-3.2-3.2h3.2z"/><path fill="#3446FF" d="M24.292 15.633h15.91v9.75H26.428a3.2 3.2 0 0 0-2.136 3.02v3.2a3.2 3.2 0 0 0 2.055 2.988h13.855v9.75h-15.91v.061c0-5.302-4.299-9.6-9.601-9.6v-9.6c5.302 0 9.6-4.299 9.6-9.6z"/><defs><linearGradient id="bsccashplus_svg-a" x1="0" x2="52.979" y1="8.899" y2="58.587" gradientUnits="userSpaceOnUse"><stop stop-color="#003CFF"/><stop offset=".5" stop-color="#8F8BFF"/><stop offset="1" stop-color="#C9FFF9"/></linearGradient></defs></svg>
